material/.icons/material/hand-pointing-down.svg

<svg xmlns="http://www.w3.org/2000/svg" viewBox="0 0 24 24"><path d="M9.9 21V11l-3.2 1.69-.2.03c-.31 0-.57-.12-.76-.32L5 11.63l4.9-4.2c.26-.27.6-.43 1-.43h6.5c.77 0 1.5.7 1.5 1.5v4.36c0 .61-.35 1.14-.85 1.34l-4.94 2.2-1.21.13V21a1 1 0 01-1 1 1 1 0 01-1-1m9-16h-8V2h8v3z"/></svg>

<?xml version="1.0" encoding="UTF-8"?><!DOCTYPE svg PUBLIC "-//W3C//DTD SVG 1.1//EN" "http://www.w3.org/Graphics/SVG/1.1/DTD/svg11.dtd"><svg xmlns="http://www.w3.org/2000/svg" xmlns:xlink="http://www.w3.org/1999/xlink" version="1.1" id="mdi-hand-pointing-down" width="24" height="24" viewBox="0 0 24 24"><path d="M9.9,21V11L6.7,12.69L6.5,12.72C6.19,12.72 5.93,12.6 5.74,12.4L5,11.63L9.9,7.43C10.16,7.16 10.5,7 10.9,7H17.4C18.17,7 18.9,7.7 18.9,8.5V12.86C18.9,13.47 18.55,14 18.05,14.2L13.11,16.4L11.9,16.53V21A1,1 0 0,1 10.9,22A1,1 0 0,1 9.9,21M18.9,5H10.9V2H18.9V5Z" /></svg>
